modules/themify-icons/icons/arrows-corner.svg

<?xml version="1.0" encoding="utf-8"?>
<!-- Generated by IcoMoon.io -->
<!DOCTYPE svg PUBLIC "-//W3C//DTD SVG 1.1//EN" "http://www.w3.org/Graphics/SVG/1.1/DTD/svg11.dtd">
<svg version="1.1" xmlns="http://www.w3.org/2000/svg" xmlns:xlink="http://www.w3.org/1999/xlink" width="17" height="17" viewBox="0 0 17 17">
<g>
</g>
	<path d="M15 9.5v5.5h-5.5v-1h3.803l-10.303-10.303v3.803h-1v-5.5h5.5v1h-3.783l10.283 10.283v-3.783h1z" fill="#000000" />
</svg>

<svg xmlns="http://www.w3.org/2000/svg" width="17" height="17" viewBox="0 0 17 17"><path d="M15 9.5V15H9.5v-1h3.803L3 3.697V7.5H2V2h5.5v1H3.717L14 13.283V9.5h1z"/></svg>
